X: 329
T:Madame helas / Dux Carlus
N: Derived from Jos2724-Madame_helas.krn
C: Josquin des Prez
%%abc-version 2.0
%%abcx-abcm2ps-target-version 5.9.1 (29 Sep 2008)
%%abc-creator hum2abc beta
%%abcx-conversion-date 2019/02/12 16:15:54
%%abc-edited-by Jesse Rodin
%%abc-edited-by Jesse Rodin; Victoria Chang 2011/05/30/
%%abcx-initial-encoding-date 2011/05/30/
%%humdrum-veritas 3895755088
%%humdrum-veritas-data 2665719601
%%linebreak <none>
%%barnumbers 0
L: 1/4
M: 2/1
Q: 1/2=120
V: 1 clef=treble
V: 2 clef=treble-8
V: 3 clef=bass
K: Bb
[V:1] F8 | 
[V:2] F8 | 
[V:3] z8 | 
[V:1] F8 | 
[V:2] F4F4 | 
[V:3] B,,8 | 
[V:1] F4F4 | 
[V:2] B8- | 
[V:3] B,,8 | 
[V:1] B6A2 | 
[V:2] B8 | 
[V:3] B,,4B,,4 | 
[V:1] G4G4 | 
[V:2] B8 | 
[V:3] E,8 | 
[V:1] F4F4 | 
[V:2] B4B4 | 
[V:3] B,,8 | 
[V:1] F2B4AG | 
[V:2] d8 | 
[V:3] z4B,,4 | 
[V:1] !fermata!A8 | 
[V:2] !fermata!c8 | 
[V:3] !fermata!F,8 | 
[V:1] B8 | 
[V:2] B8 | 
[V:3] G,8 | 
[V:1] G4B4 | 
[V:2] e8 | 
[V:3] E,8 | 
[V:1] A2GFG4 | 
[V:2] c4e4 | 
[V:3] F,4C,2E,2 | 
[V:1] F2B4A2 | 
[V:2] d2cBc4 | 
[V:3] B,,4F,4 | 
[V:1] B8 | 
[V:2] B2e4d2 | 
[V:3] G,8 | 
[V:1] B4G4 | 
[V:2] e8 | 
[V:3] E,8 | 
[V:1] c6BA | 
[V:2] e8- | 
[V:3] _A,6G,F, | 
[V:1] G8 | 
[V:2] e8 | 
[V:3] E,8 | 
[V:1] F4B4 | 
[V:2] d8 | 
[V:3] B,,8 | 
[V:1] c4e4 | 
[V:2] c8 | 
[V:3] F,4z4 | 
[V:1] d4c4- | 
[V:2] B4e4- | 
[V:3] G,4_A,4- | 
[V:1] c2B2B4- | 
[V:2] e4d4 | 
[V:3] A,2G,2B,4 | 
[V:1] B2AGA4 | 
[V:2] c8 | 
[V:3] F,8 | 
[V:1] B8 | 
[V:2] B8- | 
[V:3] z4G,4- | 
[V:1] z8 | 
[V:2] B8 | 
[V:3] G,2A,2B,4 | 
[V:1] G8 | 
[V:2] e8 | 
[V:3] E,8 | 
[V:1] G4G4 | 
[V:2] e4e4 | 
[V:3] E,4C,4 | 
[V:1] F2G4FE | 
[V:2] B8- | 
[V:3] D,2E,4D,C, | 
[V:1] D6E2 | 
[V:2] B8 | 
[V:3] B,,6C,2 | 
[V:1] F4G4- | 
[V:2] F4B4- | 
[V:3] D,4E,4- | 
[V:1] G2F2F4- | 
[V:2] B4A4 | 
[V:3] E,4F,4 | 
[V:1] F2=ED=E4 | 
[V:2] G8 | 
[V:3] C,8 | 
[V:1] F8 | 
[V:2] F8 | 
[V:3] D,8 | 
[V:1] z4E4 | 
[V:2] G8 | 
[V:3] z4C,4 | 
[V:1] F8 | 
[V:2] z4F4 | 
[V:3] D,8 | 
[V:1] z4E4 | 
[V:2] G8 | 
[V:3] z4C,4 | 
[V:1] F4G4- | 
[V:2] F4B4- | 
[V:3] D,4E,4 | 
[V:1] G2F2G4- | 
[V:2] B2A2B4 | 
[V:3] B,,2F,2E,4- | 
[V:1] G2F2E2D2 | 
[V:2] c8- | 
[V:3] E,2D,2C,2B,,2 | 
[V:1] E4E4 | 
[V:2] c8 | 
[V:3] _A,,4A,,4 | 
[V:1] D3EF2G2 | 
[V:2] B8 | 
[V:3] B,,3C,D,2E,2 | 
[V:1] F2B4AG | 
[V:2] d8 | 
[V:3] D,2B,,4B,,2 | 
[V:1] !fermata!A8 | 
[V:2] c8 | 
[V:3] !fermata!F,8 | 
[V:1] F4D2E2- | 
[V:2] z8 | 
[V:3] F,4F,2G,2- | 
[V:1] EDCB,A,4 | 
[V:2] z8 | 
[V:3] G,F,E,D,C,4 | 
[V:1] B,2F3EG2- | 
[V:2] f4d2e2- | 
[V:3] B,,4B,,2E,2- | 
[V:1] GFEDC4 | 
[V:2] edcBA3G | 
[V:3] E,2E,2F,4 | 
[V:1] B,8 | 
[V:2] B2f3eg2- | 
[V:3] B,,8 | 
[V:1] z2F2G2A2 | 
[V:2] gfedc4 | 
[V:3] z2D,2E,2F,2 | 
[V:1] B6G2 | 
[V:2] B4e4 | 
[V:3] G,4E,4 | 
[V:1] A2B2c4 | 
[V:2] c2d2e2f2- | 
[V:3] F,2D,2C,2F,2- | 
[V:1] F4B4 | 
[V:2] f2B4e2- | 
[V:3] F,2D,2E,4 | 
[V:1] G2A4GF | 
[V:2] e2c4BA | 
[V:3] E,2F,3E,F,2 | 
[V:1] E2F4=E2 | 
[V:2] G2F2G4 | 
[V:3] C,2D,2C,4 | 
[V:1] F8 | 
[V:2] F2B3Gc2- | 
[V:3] z2D,2B,,2E,2- | 
[V:1] z8 | 
[V:2] cBAGA4 | 
[V:3] E,D,C,B,,C,4 | 
[V:1] F8 | 
[V:2] B4z2B2 | 
[V:3] B,,4B,3A, | 
[V:1] G4A4 | 
[V:2] d2e2f4 | 
[V:3] G,4F,4 | 
[V:1] B6G2 | 
[V:2] B4e4- | 
[V:3] z2G,4E,2 | 
[V:1] G4c4- | 
[V:2] e2c2c4 | 
[V:3] E,4_A,4 | 
[V:1] c2B2A2G2 | 
[V:2] f6e2 | 
[V:3] F,6G,A, | 
[V:1] F4B4 | 
[V:2] d2c2B4 | 
[V:3] B,2A,2G,2F,2 | 
[V:1] c4d4- | 
[V:2] e4f4- | 
[V:3] E,4D,4 | 
[V:1] d2B2e4- | 
[V:2] f2d2g4- | 
[V:3] B,,4z4 | 
[V:1] e2d2d4- | 
[V:2] g2f2e2d2 | 
[V:3] z4B,4 | 
[V:1] d4c4 | 
[V:2] e4e4 | 
[V:3] G,4A,4 | 
[V:1] d8 | 
[V:2] d8 | 
[V:3] B,8 | 
[V:1] z4c4 | 
[V:2] e8 | 
[V:3] z4A,4 | 
[V:1] d8 | 
[V:2] z4d4 | 
[V:3] B,8 | 
[V:1] z4c4 | 
[V:2] e8 | 
[V:3] z4A,4 | 
[V:1] d6d2 | 
[V:2] z4d4 | 
[V:3] B,6B,2 | 
[V:1] d6c2 | 
[V:2] f6f2 | 
[V:3] B,4B,2A,2 | 
[V:1] d2c2d4 | 
[V:2] f4B2f2- | 
[V:3] B,2A,2B,4 | 
[V:1] c2d4cB | 
[V:2] f2d2e2f2- | 
[V:3] A,2B,4A,G, | 
[V:1] A2B4A2 | 
[V:2] f2edc4 | 
[V:3] F,2G,2F,4 | 
[V:1] B8 |]  
[V:2] B8 |]  
[V:3] B,,8 |]  



